assets/images/ammoType/light.svg

<svg height="512" viewBox="0 0 512 512" width="512" xmlns="http://www.w3.org/2000/svg"><g transform="matrix(3.05 0 0 3.05 12 24.2)"><path d="m18.380859 1-18.380859 30.810713 68 119.189287h24l68-119.46875-19-30.53125zm38.884766 4.3593443 4.158203 5.1973767h37.029297l3.759765-5.1973767h37.66992l15.35547 26.2324517-19.35351 34.310547h-6.23829l-19.43554 32.791015 3.19922 6.238282-23.433598 42.14844h-19.595703l-23.914062-41.34766 3.199219-6.398436-18.714844-33.111328-7.03711-.560547-19.1152339-33.699052 15.5660539-26.6037127z" fill="#f49a4a"/><path d="m54.099974 12h-30.060396l-11.379752 19.886885 16 27.293115c5.008728-.0028 7.032498-.05024 9.746076 4.522295l18.294483 30.827213c2.652744 5.397115-2.060515 9.743452-1.76599 10.273112l19.511264 35.0882 11.266115.00003 19.534406-35.08823c.27151-.48168-4.25898-4.32139-.74491-10.273112l18.20127-30.827213c2.52446-4.275633 4.08326-4.644496 9.26519-4.522295l15.24052-27.293115-11.3666-19.886885h-29.40177c-.41511 2.579544-3.99417 6.000328-7.135967 6.000328h-39.166416c-2.132701 0-6.037523-4.000328-6.037523-6.000328z" fill="#825226" fill-opacity=".75" stroke="#f49a4a"/><g fill="#f9cca4"><path d="m119 28v16h-7c0-2-3-2-3 0h-41l-6-3v-10l6-3h41c0 2 3 2 3 0z"/><path d="m119 50.864407v16h-7c0-2-2.96398-2-2.96398 0l-41.03602-.000145-6-3v-10l6-3 41.03602.000145c0 2 2.96398 2 2.96398 0z"/><path d="m116.2037 73.728331-9.43913 16.000194h-38.76457l-6-3v-10l6-3 41 .000193c0 2 3 2 3 0z"/><path d="m103.04333 96.592787c-1.25129 4.420383 1.01543 6.578813 1.67741 8.138493l-4.38408 7.86151h-32.33666l-6-3v-10.000003l6-3z"/><path d="m60 31v10c-8.394095-.013088-14.802885-.057621-22.927213-5 8.067702-4.944139 14.576305-5.063512 22.927213-5z"/><path d="m60 53.864262v10c-8.185058-.02303-14.571047.000338-22.927213-5 8.067702-5.060058 14.732001-5.020822 22.927213-5z"/><path d="m60 76.728525v10c-8.148135.01921-7.517144-.286885-7.517144-.286885l-5.06518-8.532357c4.219219-.807892 4.487955-1.12297 12.582324-1.180758z"/><path d="m60 99.592787v10.000003h-1.82994l-2.722574-4.87213c1.160241-1.8916 2.004406-3.25067 2.393847-5.127873z"/></g></g></svg>

<?xml version="1.0" encoding="UTF-8" standalone="no"?>
<svg
   version="1.1"
   id="svg2"
   width="512"
   height="512"
   viewBox="0 0 512 512"
   sodipodi:docname="Light_Rounds.svg"
   inkscape:version="1.1.1 (3bf5ae0d25, 2021-09-20)"
   xmlns:inkscape="http://www.inkscape.org/namespaces/inkscape"
   xmlns:sodipodi="http://sodipodi.sourceforge.net/DTD/sodipodi-0.dtd"
   xmlns="http://www.w3.org/2000/svg"
   xmlns:svg="http://www.w3.org/2000/svg"
   xmlns:rdf="http://www.w3.org/1999/02/22-rdf-syntax-ns#"
   xmlns:cc="http://creativecommons.org/ns#"
   xmlns:dc="http://purl.org/dc/elements/1.1/">
  <metadata
     id="metadata8">
    <rdf:RDF>
      <cc:Work
         rdf:about="">
        <dc:format>image/svg+xml</dc:format>
        <dc:type
           rdf:resource="http://purl.org/dc/dcmitype/StillImage" />
      </cc:Work>
    </rdf:RDF>
  </metadata>
  <defs
     id="defs6" />
  <sodipodi:namedview
     pagecolor="#ffffff"
     bordercolor="#666666"
     borderopacity="1"
     objecttolerance="10"
     gridtolerance="10"
     guidetolerance="10"
     inkscape:pageopacity="0"
     inkscape:pageshadow="2"
     inkscape:window-width="1366"
     inkscape:window-height="697"
     id="namedview4"
     showgrid="false"
     inkscape:zoom="0.70710675"
     inkscape:cx="31.819807"
     inkscape:cy="150.61375"
     inkscape:window-x="-8"
     inkscape:window-y="-8"
     inkscape:window-maximized="1"
     inkscape:current-layer="layer1"
     inkscape:pagecheckerboard="true"
     inkscape:document-rotation="0">
    <inkscape:grid
       type="xygrid"
       id="grid821" />
  </sodipodi:namedview>
  <g
     inkscape:groupmode="layer"
     id="layer1"
     inkscape:label="Layer"
     style="display:inline">
    <g
       id="g853"
       transform="matrix(3.05,0,0,3.05,12,24.2)">
      <path
         style="fill:#f49a4a;fill-opacity:1;stroke:none;stroke-width:1px;stroke-linecap:butt;stroke-linejoin:miter;stroke-opacity:1"
         d="M 18.380859,1 0,31.810713 68,151 H 92 L 160,31.53125 141,1 Z m 38.884766,4.3593443 4.158203,5.1973767 h 37.029297 l 3.759765,-5.1973767 h 37.66992 l 15.35547,26.2324517 -19.35351,34.310547 h -6.23829 l -19.43554,32.791015 3.19922,6.238282 -23.433598,42.14844 H 70.380859 L 46.466797,105.73242 49.666016,99.333984 30.951172,66.222656 23.914062,65.662109 4.7988281,31.963057 20.364882,5.3593443 Z"
         id="path823"
         sodipodi:nodetypes="cccccccccccccccccccccccccc" />
      <path
         style="fill:#825226;fill-opacity:0.75;stroke:#f49a4a;stroke-width:1px;stroke-linecap:butt;stroke-linejoin:miter;stroke-opacity:1"
         d="M 54.099974,12 H 24.039578 l -11.379752,19.886885 16,27.293115 c 5.008728,-0.0028 7.032498,-0.05024 9.746076,4.522295 l 18.294483,30.827213 c 2.652744,5.397115 -2.060515,9.743452 -1.76599,10.273112 l 19.511264,35.0882 11.266115,3e-5 19.534406,-35.08823 c 0.27151,-0.48168 -4.25898,-4.32139 -0.74491,-10.273112 L 122.70254,63.702295 C 125.227,59.426662 126.7858,59.057799 131.96773,59.18 L 147.20825,31.886885 135.84165,12 h -29.40177 c -0.41511,2.579544 -3.99417,6.000328 -7.135967,6.000328 H 60.137497 C 58.004796,18.000328 54.099974,14 54.099974,12 Z"
         id="path826"
         inkscape:connector-curvature="0"
         sodipodi:nodetypes="ccccccscccssccccssc" />
      <g
         id="g866">
        <path
           sodipodi:nodetypes="ccccccccccc"
           inkscape:connector-curvature="0"
           id="path829"
           d="m 119,28 v 16 h -7 c 0,-2 -3,-2 -3,0 H 68 L 62,41 V 31 l 6,-3 h 41 c 0,2 3,2 3,0 z"
           style="fill:#f9cca4;fill-opacity:1;stroke:none;stroke-width:1px;stroke-linecap:butt;stroke-linejoin:miter;stroke-opacity:1" />
        <path
           sodipodi:nodetypes="ccccccccccc"
           inkscape:connector-curvature="0"
           id="path829-8"
           d="m 119,50.864407 v 16 h -7 c 0,-2 -2.96398,-2 -2.96398,0 L 68,66.864262 l -6,-3 v -10 l 6,-3 41.03602,1.45e-4 c 0,2 2.96398,2 2.96398,0 z"
           style="fill:#f9cca4;fill-opacity:1;stroke:none;stroke-width:1px;stroke-linecap:butt;stroke-linejoin:miter;stroke-opacity:1" />
        <path
           sodipodi:nodetypes="ccccccccc"
           inkscape:connector-curvature="0"
           id="path829-5"
           d="m 116.2037,73.728331 -9.43913,16.000194 H 68 l -6,-3 v -10 l 6,-3 41,1.93e-4 c 0,2 3,2 3,0 z"
           style="fill:#f9cca4;fill-opacity:1;stroke:none;stroke-width:1px;stroke-linecap:butt;stroke-linejoin:miter;stroke-opacity:1" />
        <path
           sodipodi:nodetypes="cccccccc"
           inkscape:connector-curvature="0"
           id="path829-83"
           d="m 103.04333,96.592787 c -1.25129,4.420383 1.01543,6.578813 1.67741,8.138493 l -4.38408,7.86151 H 68 l -6,-3 V 99.592787 l 6,-3 z"
           style="fill:#f9cca4;fill-opacity:1;stroke:none;stroke-width:1px;stroke-linecap:butt;stroke-linejoin:miter;stroke-opacity:1" />
      </g>
      <path
         style="display:inline;fill:#f9cca4;fill-opacity:1;stroke:none;stroke-width:1px;stroke-linecap:butt;stroke-linejoin:miter;stroke-opacity:1"
         d="M 60,31 V 41 C 51.605905,40.986912 45.197115,40.942379 37.072787,36 45.140489,31.055861 51.649092,30.936488 60,31 Z"
         id="path868"
         inkscape:connector-curvature="0"
         sodipodi:nodetypes="cccc" />
      <path
         style="display:inline;fill:#f9cca4;fill-opacity:1;stroke:none;stroke-width:1px;stroke-linecap:butt;stroke-linejoin:miter;stroke-opacity:1"
         d="m 60,53.864262 v 10 c -8.185058,-0.02303 -14.571047,3.38e-4 -22.927213,-5 8.067702,-5.060058 14.732001,-5.020822 22.927213,-5 z"
         id="path868-8"
         inkscape:connector-curvature="0"
         sodipodi:nodetypes="cccc" />
      <path
         style="display:inline;fill:#f9cca4;fill-opacity:1;stroke:none;stroke-width:1px;stroke-linecap:butt;stroke-linejoin:miter;stroke-opacity:1"
         d="m 60,76.728525 v 10 c -8.148135,0.01921 -7.517144,-0.286885 -7.517144,-0.286885 l -5.06518,-8.532357 C 51.636895,77.101391 51.905631,76.786313 60,76.728525 Z"
         id="path868-0"
         inkscape:connector-curvature="0"
         sodipodi:nodetypes="ccccc" />
      <path
         style="display:inline;fill:#f9cca4;fill-opacity:1;stroke:none;stroke-width:1px;stroke-linecap:butt;stroke-linejoin:miter;stroke-opacity:1"
         d="m 60,99.592787 v 10.000003 h -1.82994 l -2.722574,-4.87213 c 1.160241,-1.8916 2.004406,-3.25067 2.393847,-5.127873 z"
         id="path868-2"
         inkscape:connector-curvature="0"
         sodipodi:nodetypes="cccccc" />
    </g>
  </g>
</svg>
